Newaita-dark/apps/24/applications-science.svg

<?xml version="1.0" encoding="UTF-8"?>
<svg xmlns="http://www.w3.org/2000/svg" xmlns:xlink="http://www.w3.org/1999/xlink" width="24pt" height="24pt" viewBox="0 0 24 24" version="1.1">
<defs>
<radialGradient id="radial0" gradientUnits="userSpaceOnUse" cx="450.908936" cy="189.579361" fx="450.908936" fy="189.579361" r="21.166656" gradientTransform="matrix(0.000000130628,-0.0585994,-0.105479,-0.0000000761539,35.624999,47.696497)">
<stop offset="0" style="stop-color:rgb(0%,0%,0%);stop-opacity:0.313725;"/>
<stop offset="0.222222" style="stop-color:rgb(0%,0%,0%);stop-opacity:0.27451;"/>
<stop offset="1" style="stop-color:rgb(0%,0%,0%);stop-opacity:0;"/>
</radialGradient>
<radialGradient id="radial1" gradientUnits="userSpaceOnUse" cx="450.908936" cy="189.579361" fx="450.908936" fy="189.579361" r="21.166656" gradientTransform="matrix(-0.000000130628,0.0585994,0.105479,0.0000000761539,-6.848817,-5.645612)">
<stop offset="0" style="stop-color:rgb(0%,0%,0%);stop-opacity:0.313725;"/>
<stop offset="0.222222" style="stop-color:rgb(0%,0%,0%);stop-opacity:0.27451;"/>
<stop offset="1" style="stop-color:rgb(0%,0%,0%);stop-opacity:0;"/>
</radialGradient>
<radialGradient id="radial2" gradientUnits="userSpaceOnUse" cx="450.908936" cy="189.579361" fx="450.908936" fy="189.579361" r="21.166656" gradientTransform="matrix(-0.000000130628,-0.0585994,0.105479,-0.0000000761539,-6.848817,47.696497)">
<stop offset="0" style="stop-color:rgb(0%,0%,0%);stop-opacity:0.313725;"/>
<stop offset="0.222222" style="stop-color:rgb(0%,0%,0%);stop-opacity:0.27451;"/>
<stop offset="1" style="stop-color:rgb(0%,0%,0%);stop-opacity:0;"/>
</radialGradient>
<radialGradient id="radial3" gradientUnits="userSpaceOnUse" cx="450.908936" cy="189.579361" fx="450.908936" fy="189.579361" r="21.166656" gradientTransform="matrix(0.000000130628,0.0585994,-0.105479,0.0000000761539,35.624998,-5.645612)">
<stop offset="0" style="stop-color:rgb(0%,0%,0%);stop-opacity:0.313725;"/>
<stop offset="0.222222" style="stop-color:rgb(0%,0%,0%);stop-opacity:0.27451;"/>
<stop offset="1" style="stop-color:rgb(0%,0%,0%);stop-opacity:0;"/>
</radialGradient>
<linearGradient id="linear0" gradientUnits="userSpaceOnUse" x1="255.323059" y1="233.5" x2="255.323044" y2="254.666656" gradientTransform="matrix(0.01002,0,0,0.0468795,11.581675,10.079088)">
<stop offset="0" style="stop-color:rgb(0%,0%,0%);stop-opacity:0.27451;"/>
<stop offset="1" style="stop-color:rgb(0%,0%,0%);stop-opacity:0;"/>
</linearGradient>
<linearGradient id="linear1" gradientUnits="userSpaceOnUse" x1="254" y1="-62.833332" x2="254" y2="233.5" gradientTransform="matrix(0.0468795,0,0,0.0468795,-4.961381,5.047388)">
<stop offset="0" style="stop-color:rgb(56.470588%,79.215686%,97.647059%);stop-opacity:1;"/>
<stop offset="1" style="stop-color:rgb(39.215686%,70.980392%,96.470588%);stop-opacity:1;"/>
</linearGradient>
<linearGradient id="linear2" gradientUnits="userSpaceOnUse" x1="254" y1="-62.833332" x2="254" y2="233.5" gradientTransform="matrix(0.0468795,0,0,0.0468795,0,10.079087)">
<stop offset="0" style="stop-color:rgb(47.058824%,56.470588%,61.176471%);stop-opacity:1;"/>
<stop offset="1" style="stop-color:rgb(37.647059%,49.019608%,54.509804%);stop-opacity:1;"/>
</linearGradient>
<linearGradient id="linear3" gradientUnits="userSpaceOnUse" x1="1160" y1="975.118103" x2="1160" y2="1295.118164" gradientTransform="matrix(1,0,0,1,0,0)">
<stop offset="0" style="stop-color:rgb(74.117647%,74.117647%,74.117647%);stop-opacity:1;"/>
<stop offset="1" style="stop-color:rgb(87.843137%,87.843137%,87.843137%);stop-opacity:1;"/>
</linearGradient>
</defs>
<g id="surface1">
<path style=" stroke:none;fill-rule:nonzero;fill:url(#radial0);" d="M 15.875 21.027344 L 17.859375 21.027344 L 17.859375 20.03125 L 15.875 20.03125 Z M 15.875 21.027344 "/>
<path style=" stroke:none;fill-rule:nonzero;fill:url(#radial1);" d="M 12.898438 21.027344 L 10.914062 21.027344 L 10.914062 22.019531 L 12.898438 22.019531 Z M 12.898438 21.027344 "/>
<path style=" stroke:none;fill-rule:nonzero;fill:url(#radial2);" d="M 12.898438 21.027344 L 10.914062 21.027344 L 10.914062 20.03125 L 12.898438 20.03125 Z M 12.898438 21.027344 "/>
<path style=" stroke:none;fill-rule:nonzero;fill:url(#radial3);" d="M 15.875 21.027344 L 17.859375 21.027344 L 17.859375 22.019531 L 15.875 22.019531 Z M 15.875 21.027344 "/>
<path style=" stroke:none;fill-rule:nonzero;fill:url(#linear0);" d="M 12.898438 20.777344 L 15.875 20.777344 L 15.875 22.019531 L 12.898438 22.019531 Z M 12.898438 20.777344 "/>
<path style=" stroke:none;fill-rule:nonzero;fill:url(#linear1);" d="M 9.425781 2.101562 C 13.261719 2.101562 16.371094 5.210938 16.371094 9.046875 C 16.371094 12.882812 13.261719 15.992188 9.425781 15.992188 C 5.589844 15.992188 2.480469 12.882812 2.480469 9.046875 C 2.480469 5.210938 5.589844 2.101562 9.425781 2.101562 Z M 9.425781 2.101562 "/>
<path style=" stroke:none;fill-rule:nonzero;fill:rgb(100%,100%,100%);fill-opacity:0.392157;" d="M 9.425781 2.101562 C 5.578125 2.101562 2.480469 5.199219 2.480469 9.046875 C 2.480469 9.070312 2.480469 9.089844 2.480469 9.109375 C 2.515625 5.289062 5.597656 2.226562 9.425781 2.226562 C 13.253906 2.226562 16.339844 5.289062 16.371094 9.109375 C 16.371094 9.089844 16.371094 9.070312 16.371094 9.046875 C 16.371094 5.199219 13.273438 2.101562 9.425781 2.101562 Z M 9.425781 2.101562 "/>
<path style=" stroke:none;fill-rule:nonzero;fill:rgb(0%,0%,0%);fill-opacity:0.235294;" d="M 9.425781 15.992188 C 5.578125 15.992188 2.480469 12.894531 2.480469 9.046875 C 2.480469 9.027344 2.480469 9.007812 2.480469 8.984375 C 2.515625 12.804688 5.597656 15.871094 9.425781 15.871094 C 13.253906 15.871094 16.339844 12.804688 16.371094 8.984375 C 16.371094 9.007812 16.371094 9.027344 16.371094 9.046875 C 16.371094 12.894531 13.273438 15.992188 9.425781 15.992188 Z M 9.425781 15.992188 "/>
<path style=" stroke:none;fill-rule:nonzero;fill:rgb(12.941177%,12.941177%,12.941177%);fill-opacity:1;" d="M 9.425781 2.03125 C 5.539062 2.03125 2.410156 5.160156 2.410156 9.046875 C 2.410156 12.933594 5.539062 16.0625 9.425781 16.0625 C 13.3125 16.0625 16.441406 12.933594 16.441406 9.046875 C 16.441406 5.160156 13.3125 2.03125 9.425781 2.03125 Z M 9.425781 2.171875 C 13.238281 2.171875 16.300781 5.238281 16.300781 9.046875 C 16.300781 12.859375 13.238281 15.921875 9.425781 15.921875 C 5.617188 15.921875 2.550781 12.859375 2.550781 9.046875 C 2.550781 5.238281 5.617188 2.171875 9.425781 2.171875 Z M 9.425781 2.171875 "/>
<path style=" stroke:none;fill-rule:nonzero;fill:url(#linear2);" d="M 14.386719 7.132812 C 18.222656 7.132812 21.335938 10.242188 21.335938 14.078125 C 21.335938 17.914062 18.222656 21.027344 14.386719 21.027344 C 10.550781 21.027344 7.441406 17.914062 7.441406 14.078125 C 7.441406 10.242188 10.550781 7.132812 14.386719 7.132812 Z M 14.386719 7.132812 "/>
<path style=" stroke:none;fill-rule:nonzero;fill:rgb(100%,100%,100%);fill-opacity:0.392157;" d="M 14.386719 7.132812 C 10.539062 7.132812 7.441406 10.230469 7.441406 14.078125 C 7.441406 14.101562 7.441406 14.121094 7.441406 14.140625 C 7.476562 10.320312 10.5625 7.257812 14.386719 7.257812 C 18.214844 7.257812 21.300781 10.320312 21.332031 14.140625 C 21.332031 14.121094 21.335938 14.101562 21.335938 14.078125 C 21.335938 10.230469 18.234375 7.132812 14.386719 7.132812 Z M 14.386719 7.132812 "/>
<path style=" stroke:none;fill-rule:nonzero;fill:rgb(0%,0%,0%);fill-opacity:0.235294;" d="M 14.386719 21.027344 C 10.539062 21.027344 7.441406 17.925781 7.441406 14.078125 C 7.441406 14.058594 7.441406 14.039062 7.441406 14.015625 C 7.476562 17.835938 10.5625 20.902344 14.386719 20.902344 C 18.214844 20.902344 21.300781 17.835938 21.332031 14.015625 C 21.332031 14.039062 21.335938 14.058594 21.335938 14.078125 C 21.335938 17.925781 18.234375 21.027344 14.386719 21.027344 Z M 14.386719 21.027344 "/>
<path style=" stroke:none;fill-rule:nonzero;fill:rgb(12.941177%,12.941177%,12.941177%);fill-opacity:1;" d="M 14.386719 7.0625 C 10.503906 7.0625 7.371094 10.195312 7.371094 14.078125 C 7.371094 17.964844 10.503906 21.097656 14.386719 21.097656 C 18.273438 21.097656 21.40625 17.964844 21.40625 14.078125 C 21.40625 10.195312 18.273438 7.0625 14.386719 7.0625 Z M 14.386719 7.203125 C 18.199219 7.203125 21.265625 10.269531 21.265625 14.078125 C 21.265625 17.890625 18.199219 20.957031 14.386719 20.957031 C 10.578125 20.957031 7.511719 17.890625 7.511719 14.078125 C 7.511719 10.269531 10.578125 7.203125 14.386719 7.203125 Z M 14.386719 7.203125 "/>
<path style="fill-rule:nonzero;fill:url(#linear3);stroke-width:11.338583;stroke-linecap:square;stroke-linejoin:bevel;stroke:rgb(12.941177%,12.941177%,12.941177%);stroke-opacity:1;stroke-miterlimit:4;" d="M 999.904566 975.025051 C 977.859426 975.025051 959.908384 992.976094 959.908384 1015.021234 L 959.908384 1254.99833 C 959.908384 1277.3584 977.859426 1294.994513 999.904566 1294.994513 L 1039.900749 1294.994513 C 1062.26082 1294.994513 1079.896932 1277.3584 1079.896932 1254.99833 L 1079.896932 1175.005965 L 1239.881662 1175.005965 L 1239.881662 1254.99833 C 1239.881662 1277.3584 1257.832705 1294.994513 1279.877845 1294.994513 L 1319.874028 1294.994513 C 1342.234098 1294.994513 1359.87021 1277.3584 1359.87021 1254.99833 L 1359.87021 1015.021234 C 1359.87021 992.976094 1342.234098 975.025051 1319.874028 975.025051 L 1279.877845 975.025051 C 1257.832705 975.025051 1239.881662 992.976094 1239.881662 1015.021234 L 1239.881662 1095.013599 L 1079.896932 1095.013599 L 1079.896932 1015.021234 C 1079.896932 992.976094 1062.26082 975.025051 1039.900749 975.025051 Z M 999.904566 975.025051 " transform="matrix(0.0124035,0,0,0.0124035,0,0)"/>
</g>
</svg>

<svg xmlns="http://www.w3.org/2000/svg" width="32" height="32" viewBox="0 0 24 24"><defs><radialGradient id="a" gradientUnits="userSpaceOnUse" cx="450.909" cy="189.579" fx="450.909" fy="189.579" r="21.167" gradientTransform="matrix(0 -.0586 -.10548 0 35.625 47.696)"><stop offset="0" stop-opacity=".314"/><stop offset=".222" stop-opacity=".275"/><stop offset="1" stop-opacity="0"/></radialGradient><radialGradient id="b" gradientUnits="userSpaceOnUse" cx="450.909" cy="189.579" fx="450.909" fy="189.579" r="21.167" gradientTransform="matrix(0 .0586 .10548 0 -6.849 -5.646)"><stop offset="0" stop-opacity=".314"/><stop offset=".222" stop-opacity=".275"/><stop offset="1" stop-opacity="0"/></radialGradient><radialGradient id="c" gradientUnits="userSpaceOnUse" cx="450.909" cy="189.579" fx="450.909" fy="189.579" r="21.167" gradientTransform="matrix(0 -.0586 .10548 0 -6.849 47.696)"><stop offset="0" stop-opacity=".314"/><stop offset=".222" stop-opacity=".275"/><stop offset="1" stop-opacity="0"/></radialGradient><radialGradient id="d" gradientUnits="userSpaceOnUse" cx="450.909" cy="189.579" fx="450.909" fy="189.579" r="21.167" gradientTransform="matrix(0 .0586 -.10548 0 35.625 -5.646)"><stop offset="0" stop-opacity=".314"/><stop offset=".222" stop-opacity=".275"/><stop offset="1" stop-opacity="0"/></radialGradient><linearGradient id="e" gradientUnits="userSpaceOnUse" x1="255.323" y1="233.5" x2="255.323" y2="254.667" gradientTransform="matrix(.01002 0 0 .04688 11.582 10.08)"><stop offset="0" stop-opacity=".275"/><stop offset="1" stop-opacity="0"/></linearGradient><linearGradient id="f" gradientUnits="userSpaceOnUse" x1="254" y1="-62.833" x2="254" y2="233.5" gradientTransform="matrix(.04688 0 0 .04688 -4.961 5.047)"><stop offset="0" stop-color="#90caf9"/><stop offset="1" stop-color="#64b5f6"/></linearGradient><linearGradient id="g" gradientUnits="userSpaceOnUse" x1="254" y1="-62.833" x2="254" y2="233.5" gradientTransform="matrix(.04688 0 0 .04688 0 10.08)"><stop offset="0" stop-color="#78909c"/><stop offset="1" stop-color="#607d8b"/></linearGradient><linearGradient id="h" gradientUnits="userSpaceOnUse" x1="1160" y1="975.118" x2="1160" y2="1295.118"><stop offset="0" stop-color="#bdbdbd"/><stop offset="1" stop-color="#e0e0e0"/></linearGradient></defs><path d="M15.875 21.027h1.984v-.996h-1.984zm0 0" fill="url(#a)"/><path d="M12.898 21.027h-1.984v.993h1.984zm0 0" fill="url(#b)"/><path d="M12.898 21.027h-1.984v-.996h1.984zm0 0" fill="url(#c)"/><path d="M15.875 21.027h1.984v.993h-1.984zm0 0" fill="url(#d)"/><path d="M12.898 20.777h2.977v1.243h-2.977zm0 0" fill="url(#e)"/><path d="M9.426 2.102a6.945 6.945 0 1 1 0 13.89 6.945 6.945 0 0 1 0-13.89zm0 0" fill="url(#f)"/><path d="M9.426 2.102A6.93 6.93 0 0 0 2.48 9.109a6.93 6.93 0 0 1 6.946-6.882 6.927 6.927 0 0 1 6.945 6.882v-.062a6.93 6.93 0 0 0-6.945-6.945zm0 0" fill="#fff" fill-opacity=".392"/><path d="M9.426 15.992A6.93 6.93 0 0 1 2.48 9.047v-.063a6.933 6.933 0 0 0 6.946 6.887 6.93 6.93 0 0 0 6.945-6.887v.063a6.93 6.93 0 0 1-6.945 6.945zm0 0" fill-opacity=".235"/><path d="M9.426 2.031A7 7 0 0 0 2.41 9.047a7 7 0 0 0 7.016 7.015 7 7 0 0 0 7.015-7.015A7 7 0 0 0 9.426 2.03zm0 .14A6.858 6.858 0 0 1 16.3 9.048a6.855 6.855 0 0 1-6.875 6.875A6.858 6.858 0 0 1 2.55 9.047a6.86 6.86 0 0 1 6.875-6.875zm0 0" fill="#212121"/><path d="M14.387 7.133c3.836 0 6.949 3.11 6.949 6.945a6.952 6.952 0 0 1-6.95 6.95 6.948 6.948 0 0 1 0-13.895zm0 0" fill="url(#g)"/><path d="M14.387 7.133a6.93 6.93 0 0 0-6.946 6.945v.063a6.932 6.932 0 0 1 6.946-6.883 6.927 6.927 0 0 1 6.945 6.883c0-.02.004-.04.004-.063a6.934 6.934 0 0 0-6.95-6.945zm0 0" fill="#fff" fill-opacity=".392"/><path d="M14.387 21.027a6.934 6.934 0 0 1-6.946-6.949v-.062a6.935 6.935 0 0 0 6.946 6.886 6.93 6.93 0 0 0 6.945-6.886c0 .023.004.043.004.062a6.937 6.937 0 0 1-6.95 6.95zm0 0" fill-opacity=".235"/><path d="M14.387 7.063a7.005 7.005 0 0 0-7.016 7.015 7.006 7.006 0 0 0 7.016 7.02 7.007 7.007 0 0 0 7.02-7.02 7.006 7.006 0 0 0-7.02-7.015zm0 .14a6.861 6.861 0 0 1 6.879 6.875 6.862 6.862 0 0 1-6.88 6.879 6.861 6.861 0 0 1-6.874-6.879 6.86 6.86 0 0 1 6.875-6.875zm0 0" fill="#212121"/><path d="M999.905 975.025c-22.046 0-39.997 17.951-39.997 39.996v239.977c0 22.36 17.951 39.997 39.997 39.997h39.996c22.36 0 39.996-17.637 39.996-39.997v-79.992h159.985v79.992c0 22.36 17.95 39.997 39.996 39.997h39.996c22.36 0 39.996-17.637 39.996-39.997v-239.977c0-22.045-17.636-39.996-39.996-39.996h-39.996c-22.045 0-39.996 17.951-39.996 39.996v79.993h-159.985v-79.993c0-22.045-17.636-39.996-39.996-39.996zm0 0" transform="scale(.0124)" fill="url(#h)" stroke-width="11.339" stroke-linecap="square" stroke-linejoin="bevel" stroke="#212121"/></svg>
